X:1
T:DEBAJO UN BOTÓN
T:DEBAJO UN BOTÓN
L:1/8
M:2/4
K:C
V:1 treble nm="Piano" snm="Pno."
V:1
 C>D EF | GG G2 | A>B cA | GG G2 | F>G AF | EE E2 | D>E FD | CC C2 |] %8

